X:1
T:The Love That Gave Jesus to Die
T:The Love That Gave Jesus to Die
T:James McGranahan
T:Daniel Webster Whittle, 1887
T:Public Domain Courtesy of the Cyber Hymnal™
C:James McGranahan
Z:Public Domain
Z:Courtesy of the Cyber Hymnal™
%%score ( 1 2 ) ( 3 4 )
L:1/8
Q:1/4=86
M:6/8
K:G
V:1 treble 
V:2 treble 
V:3 bass 
V:4 bass 
V:1
 [B,G]/[CA]/ | [DB]>[CA][B,G] [CA][CE][CF] | [B,G]3- [B,G]2 [DG] | [FA][FA][FA] [GB][Ac][GB] | %4
w: 1.~Let us|sing of the love of the|Lord, * As|now to the cross we draw|
w: 2.~O how|great was the love that was|shown * To|us— we can ne- ver tell|
w: 3.~Now this|love un- to all God com-|mends, * Not|one would His mer- cy pass|
w: 4.~Who is|He that can sep- a- rate|those * Whom|God doth in love jus- ti-|
 [FA]3- [FA]2 [GB]/[Ac]/ | [Bd]>[ce][GB] [Bd]2 [GB]/[FA]/ | [EG]>[CA][CE] [EG]2 [DF]/[CE]/ | %7
w: nigh; * Let us|sing to the praise Of the|God of all grace, For the|
w: why— * Not to|an- gels, but men; Let us|praise Him a- gain For the|
w: by; * “Who- so-|ev- er shall call,” There is|par- don for all In the|
w: fy; * What- so-|ev- er we need, He in-|cludes in the deed, In the|
 [B,D][B,G][DB] [CA][CE][CF] | [B,G]3- [B,G]2 ||"^Refrain" [DG]/[GB]/ | %10
w: love that gave Je- sus to|die. *||
w: love that gave Je- sus to|die. *||
w: love that gave Je- sus to|die. *||
w: love that gave Je- sus to|die. *||
 [Fd]>[FA][FA] [FA][GB][Ac] | ([Ac]3 [GB]2) B | [^DB]>[DF][DF] [DF][EG][FA] | [FA]3 [EG]2 [CE] | %14
w: ||||
w: ||||
w: ||||
w: ||||
 [B,D][DG][GB] [Bd]2 [D=F] | [CE][Ec]>[Ec] [Ec]2 [Ec] | [DB]>[CA][B,G] [CA][CE][CF] | %17
w: |||
w: |||
w: |||
w: |||
 [B,G]3- [B,G]2 |] %18
w: |
w: |
w: |
w: |
V:2
 x | x6 | x6 | x6 | x6 | x6 | x6 | x6 | x5 || x | x6 | x5 (G/E/) | x6 | x6 | x6 | x6 | x6 | x5 |] %18
V:3
 G,/G,/ | G,>G,G, [D,F,][D,G,][D,A,] | [G,,G,]3- [G,,G,]2 [B,,D] | %3
w: ~ ~|~ ~ ~ ~ ~ ~|~ * ~|
 [D,D][D,D][D,D] [G,D][F,D][G,D] | [D,D]3- [D,D]2 G,/G,/ | G,>G,G, G,2 [G,,D,]/[B,,D,]/ | %6
w: ~ ~ ~ ~ ~ ~|~ * ~ ~|~ ~ ~ ~ ~ ~|
 [C,G,]>[C,E,][C,G,] [C,C]2 [C,G,]/[C,G,]/ | [D,G,][D,G,][D,G,] [D,F,][D,G,][D,A,] | %8
w: ~ ~ ~ ~ ~ ~|~ ~ ~ ~ ~ ~|
 [G,,G,]3- [G,,G,]2 || [G,B,]/[G,B,]/ | [D,A,]>[D,D][D,D] [D,D][D,D][D,D] | [G,D]3- [G,D]2 [E,G,] | %12
w: ~ *|O the|love that gave Je- sus to|die, * The|
 [B,,F,]>[B,,B,][B,,B,] [B,,B,][B,,B,][B,,B,] | [E,B,]3- [E,B,]2 [F,A,] | %14
w: love that gave Je- sus to|die; * Praise|
 [G,B,][G,B,][G,D] G,2 [B,,G,] | [C,G,][C,G,]>[C,G,] [C,G,]2 [C,G,] | %16
w: God, it is mine, This|love so di- vine, The|
 [D,G,]>[D,G,][D,G,] [D,F,][D,G,][D,A,] | [G,,G,]3- [G,,G,]2 |] %18
w: love that gave Je- sus to|die. *|
V:4
 G,/G,/ | G,>G,G, x3 | x6 | x6 | x5 G,/G,/ | G,>G,G, G,2 x | x6 | x6 | x5 || x | x6 | x6 | x6 | %13
 x6 | x3 G,2 x | x6 | x6 | x5 |] %18

